X: 1
T: Fiddler on the Roof
M: 4/4
L: 1/4
K: A
e \
| "A"ae ee | e3 c | "G"dd cd | "A"e3 e \
| "A"ae ee | e3 c | "G"dd "F"=c_B | "A"A3 :|
|: "A"AA/B/ cd | e/^d/e/f/ dc | "G"dd/e/ dB | "A"cc/d/ cB\
| "A"AA/B/ cd | e/^d/e/f/ dc | "G"dd "F"=c_B | "A"A3 :|
